X:1
T:James Gibb editions
T:Scaramella - des Prez
T:#
%%score [ 1 2 3 4 ]
L:1/8
Q:1/4=121
M:3/4
K:F
V:1 treble nm="Soprano" snm="S"
V:2 treble nm="Alto" snm="A"
V:3 treble-8 nm="Tenor" snm="T"
V:4 bass nm="Bass" snm="B"
V:1
"^Scaramella""^Josquin des Prez\n(c.1450-1521)" B4 c2 | d4 d2 | d4 d2 | c4 A2- | A2 c2 c2 | B4 G2 | %6
w: Sca- ra-|mel- la|va~~al- la|guer- ra|* col- la|lan- cia~et|
 A2 B4 | (A3 B c2) | (B3 A G2) | A4 A2 | (B3 A) B2 | c4 c2 | (B3 A) B2 | A4 A2 | (B3 A B2) | %15
w: la ro-|tel\- * *|la. * *|La zom-|be\- * ro|bo- ro|bo\- * rom-|bet- ta,|La * *|
 (c2 A2) (Bc) | d4 ^c2 | d6 | z6 | B4 c2 | d4 c2 | (B2 d2) c2 | (B2 A2 B2) | A4 z2 | c4 c2 | %25
w: bo\- * ro *|bo- rom-|bo.||Sca- ra-|mel- la|~fa * la|ga\- * *|la|col- la|
 A4 A2 | (B3 A F2) | G2 F4 | G2 A2 F2 | G2 (A3 G) | (FE) D3 E | G4 F2 | G2 A2 F2 | G2 (A3 G) | %34
w: schar- pa|et * *|la sti-|va- la. La|zom- be\- *|ro * bo- ro|bo- rom-|bet- ta, la|zom- be\- *|
 (FE) D3 E | G4 ^F2 | G6- | G6 |] %38
w: ro * bo- ro|bo- rom-|bo.||
V:2
 z6 | z6 | F4 G2 | A4 A2 | A4 A2 | G4 E2- | E2 G2 G2 | F4 E2 | D2 E4 | F2 E2 F2 | G3 A G2- | %11
w: ||Sca- ra-|mel- la|va~~al- la|guer- ra|* col- la|lan- cia~et|la ro-|tel- la. La|zom- be- ro|
 G2 F3 E | D2 E4 | F2 E2 F2 | G3 A G2- | G2 F3 E | D2 E4 | D6- | D6 | z6 | B,4 C2 | (D3 E) F2 | %22
w: * bo- ro|bo- rom-|bet- ta, La|zom- be- ro|* bo- ro|bo- rom-|bo.|||Sca- ra-|mel\- * la|
 G4 G2 | F4 D2 | E4 E2 | (F3 G) A2 | D6 | C2 D4 | D2 F4 | (ED) (CD) C2- | C2 D2 B,2 | C2 D4 | %32
w: fa la|ga- la|col- la|schar\- * pa~et|la|sti- va-|la. La|zom\- * be\- * ro|* bo- ro|bo- rom-|
 D2 F4 | (ED) (CD) C2- | C2 D2 B,2 | C2 D4 | D6- | D6 |] %38
w: bo, la|zom\- * be\- * ro|* bo- ro|bo- rom-|bo.||
V:3
 g4 e2 | d4 d2 | d4 d2 | f4 c2 | (f3 e) f2 | d4 e2 | c2 (d3 e) | (fg a4 | f2 g4) | c2 z2 c2 | %10
w: Sca- ra-|mel- la|va~~al- la|guer- ra|col\- * la|lan- cia~et|la ro\- *|tel\- * *||la La|
 d4 d2 | c4 A2 | B2 G4 | d2 z2 c2 | d6 | c4 f2 | g2 a4 | f6- | f6 | z6 | z6 | B4 c2 | d4 d2 | %23
w: zom- be-|ro bo-|ro bo-|rom, La|zom-|be- ro|bo- rom-|bo.||||Sca- ra-|mel- la|
 d4 d2 | c4 A2- | A2 c2 c2 | B4 A2 | G2 A4 | B2 A2 B2 | c3 B A2- | A2 B3 A | G2 A4 | B2 A2 B2 | %33
w: fa la|ga- la|* col- la|schar- pa~et|la sti-|va- la. La|zom- be- ro|* bo- ro|bo- rom-|bet- ta, La|
 c3 B (A2 | A2 B3) A | G2 A4 | G6- | G6 |] %38
w: zom- be- ro|* bo- ro|bo- rom-|bo.||
V:4
 G,4 A,2 | B,4 B,2 | B,4 B,2 | F,4 F,2- | F,2 F,4 | G,4 C2 | A,2 G,4 | (D3 C A,2) | B,2 G,4 | %9
w: Sca- ra-|mel- la|va~~al- la|guer\- *|* col-|la lan-|cia~et la|ro\- * *|tel- la|
 F,2 A,4 | (G,3 F,) G,2 | C,2 F,4 | (G,3 F,) E,2 | D,2 A,4 | (G,3 F, G,2) | C,2 (F,3 G,) | %16
w: La zom-|be\- * ro|bo- ro|bo\- * rom-|bet- ta,|la * *|bo- ro *|
 B,2 A,4 | D,4 z2 | B,4 C2 | D4 C2 | B,2 G,2 A,2 | G,2 B,2 A,2 | (G,6 | D,6 | A,6 | F,6) | %26
w: bo- rom-|bo.|Sca- ra-|mel- la|fa la ga-|la col- la|schar\-||||
 G,4 D,2 | E,2 D,4 | G,2 F,2 D,2 | C,2 F,4 | z2 G,4 | E,2 D,4 | G,2 F,2 D,2 | C,2 F,4 | z2 G,4 | %35
w: pa et|la sti-|va\- * *|* la.|La|zom- be-|ro bo- rom-|bet- ta|bor|
 E,2 D,4 | D6- | D6 |] %38
w: bo- rom-|bo.||

